X:35
T:Polly put the Kittle on
O: No 35 Page 14 William Clarke of Feltwell  MS 1858
I:abc2nwc
M:2/4
L:1/16
K:C
g3ag2f2|e2c2 c4|A2d2d2c2|B2G2 G4|g3ag2f2|e2c2 c4|A2 A2 B2 G2|c6z2:|
|:e2c2f2d2|e2c2 c4|A2d2d2c2|B2G2 G4|e2c2f2d2|e2c2 c4|A2A2B2G2|c6z2:||:

